lib/logo_tmp/nrk-logo-nrk-p2-with-bg.svg

<svg width="68" height="24" viewBox="0 0 68 24" fill="none" xmlns="http://www.w3.org/2000/svg">
<rect y="-3.05176e-05" width="68" height="24" fill="#78003D"/>
<path d="M6.00427 18V6.00113H9.94146V18H6.00427ZM15.2981 7.91082L17.5623 18H13.2534L10.5498 6.00113H12.9664C13.5206 5.99394 14.0583 6.18929 14.4788 6.55043C14.8999 6.89643 15.1892 7.37674 15.2981 7.91082ZM18.1538 18V6.00113H22.091V18H18.1538ZM25.0647 10.5641C24.6405 10.5683 24.223 10.4573 23.8568 10.243C23.4955 10.0342 23.1954 9.734 22.9865 9.37264C22.7721 9.00638 22.661 8.58881 22.6652 8.16436C22.6604 7.7425 22.7715 7.32742 22.9865 6.96447C23.1976 6.60703 23.4974 6.31014 23.8568 6.10256C24.2231 5.88855 24.6405 5.77756 25.0647 5.78143C25.4865 5.77689 25.9014 5.88797 26.2645 6.10256C26.6203 6.31196 26.9169 6.6086 27.1263 6.96447C27.3411 7.32753 27.4522 7.74254 27.4476 8.16436C27.4515 8.58877 27.3405 9.00627 27.1263 9.37264C26.9191 9.73242 26.6222 10.0323 26.2645 10.243C25.9014 10.458 25.4862 10.5691 25.0642 10.5641H25.0647ZM28.0559 18V6.00113H31.9934V18H28.0559ZM36.978 12.5583C36.9891 12.5699 37.0735 12.7079 37.2314 12.9723C37.3893 13.2367 37.5949 13.5747 37.8482 13.9863C38.1017 14.3977 38.3692 14.8343 38.6506 15.296C38.932 15.7578 39.1969 16.1944 39.4451 16.6058C39.6924 17.0172 39.974 17.482 40.29 18H35.9641C35.6936 17.5606 35.4484 17.1635 35.2288 16.8086C35.0091 16.4537 34.7756 16.0706 34.5281 15.6594C34.2801 15.2485 34.0349 14.8486 33.7925 14.4595C33.5501 14.0704 33.3418 13.7297 33.1675 13.4371C32.9926 13.1444 32.8714 12.9472 32.8039 12.8456C32.6368 12.5935 32.5379 12.3023 32.517 12.0006C32.5337 11.711 32.6269 11.431 32.787 11.1892C32.8546 11.0765 32.9786 10.8765 33.1588 10.5892C33.3391 10.3019 33.5503 9.9611 33.7925 9.56677C34.0347 9.17244 34.2799 8.76965 34.5281 8.35842C34.7763 7.94719 35.0098 7.56128 35.2288 7.20075C35.4488 6.8406 35.6939 6.44063 35.9641 6.00086H40.29L36.9439 11.4595C36.8404 11.6216 36.782 11.8084 36.7749 12.0006C36.786 12.2024 36.8565 12.3964 36.9774 12.5583H36.978Z" fill="white"/>
<path d="M53.1601 7.55474C52.9522 7.234 52.685 6.95571 52.3729 6.73474C52.0251 6.49171 51.6389 6.30886 51.2304 6.19388C50.7343 6.05721 50.2212 5.99187 49.7066 5.99981H45V17.9997H46.7777V13.6899H49.8423C50.5339 13.7003 51.2163 13.5315 51.8229 13.1998C52.4043 12.8782 52.8871 12.4049 53.2196 11.8305C53.5762 11.1966 53.7546 10.4784 53.736 9.75161C53.7375 9.3589 53.6921 8.96741 53.6009 8.58542C53.5128 8.21965 53.3638 7.87126 53.1601 7.55474ZM51.5856 11.197C51.3583 11.5534 51.0234 11.8287 50.6293 11.9829C50.151 12.1636 49.642 12.2497 49.1307 12.2364H46.7774V7.47021H49.368C49.8628 7.45159 50.3552 7.54692 50.8071 7.74881C51.1665 7.92221 51.4603 8.20672 51.6449 8.56007C51.8406 8.95641 51.9366 9.39442 51.9245 9.83613C51.944 10.3127 51.8264 10.7849 51.5856 11.197Z" fill="#FDAFD7"/>
<path d="M57.1844 16.546C57.4525 16.3167 57.7279 16.0778 58.0191 15.8192C58.4254 15.4588 58.8346 15.0673 59.2466 14.6446C59.6586 14.2218 60.0508 13.7825 60.4232 13.3266C60.7851 12.8852 61.1161 12.4194 61.4137 11.9325C61.6917 11.48 61.9188 10.9981 62.0908 10.4958C62.2506 10.0335 62.3336 9.54827 62.3364 9.05924C62.3444 8.60262 62.252 8.1498 62.0655 7.73277C61.8807 7.33887 61.6086 6.9921 61.2697 6.7187C60.882 6.41192 60.4355 6.18749 59.9577 6.05924C59.3704 5.89899 58.7633 5.8222 58.1545 5.83109C57.7601 5.83007 57.3664 5.864 56.9779 5.9325C56.6084 5.99783 56.2457 6.09694 55.8943 6.22856C55.5593 6.35375 55.2339 6.50335 54.9209 6.67616L55.141 8.14657C55.4091 7.96712 55.6957 7.81697 55.996 7.69869C56.3221 7.56784 56.6592 7.46601 57.0033 7.39445C57.3541 7.32121 57.7115 7.28451 58.0699 7.28489C58.4452 7.27723 58.8195 7.32845 59.1789 7.43671C59.4652 7.52424 59.7283 7.67437 59.9492 7.87616C60.1481 8.0614 60.3015 8.28982 60.3978 8.54376C60.4963 8.81159 60.545 9.09509 60.5417 9.38037C60.536 9.85926 60.4384 10.3326 60.254 10.7747C60.0397 11.294 59.767 11.7873 59.4413 12.2452C59.062 12.7832 58.6493 13.2969 58.2054 13.7832C57.7313 14.3071 57.215 14.831 56.6563 15.355C56.0976 15.8789 55.5191 16.4113 54.9209 16.9522L55.141 18H62.4718L62.675 16.5462L57.1844 16.546Z" fill="#FDAFD7"/>
</svg>

<svg xmlns="http://www.w3.org/2000/svg" viewBox="0 0 68 24"><path fill="#78003D" d="M0 0h68v24H0z"/><path fill="#fff" d="M6.004 18V6.001h3.937V18H6.004Zm9.294-10.09L17.562 18h-4.309L10.55 6.001h2.416a2.276 2.276 0 0 1 1.513.55c.42.345.71.826.82 1.36ZM18.154 18V6.001h3.937V18h-3.937Zm6.91-7.436a2.382 2.382 0 0 1-2.4-2.4 2.303 2.303 0 0 1 .323-1.2 2.412 2.412 0 0 1 3.278-.861c.355.209.652.506.861.861.215.364.326.779.322 1.2a2.4 2.4 0 0 1-1.183 2.079 2.302 2.302 0 0 1-1.2.321ZM28.057 18V6.001h3.937V18h-3.937Zm8.922-5.442c.011.012.096.15.253.414.158.265.364.603.617 1.014a315.936 315.936 0 0 1 1.597 2.62c.247.411.529.876.845 1.394h-4.326c-.27-.44-.516-.837-.735-1.191-.22-.355-.453-.738-.7-1.15-.249-.41-.494-.81-.737-1.2-.242-.389-.45-.73-.625-1.022-.174-.293-.296-.49-.363-.591a1.748 1.748 0 0 1-.287-.845c.017-.29.11-.57.27-.812.068-.113.192-.313.372-.6s.391-.628.633-1.022c.243-.395.488-.797.736-1.209l.7-1.157.736-1.2h4.326l-3.346 5.458a1.08 1.08 0 0 0-.17.542c.012.201.082.395.203.557h.001Z"/><path fill="#FDAFD7" d="M53.16 7.555a3.013 3.013 0 0 0-.787-.82 3.785 3.785 0 0 0-1.143-.541A5.422 5.422 0 0 0 49.707 6H45v12h1.778v-4.31h3.064a4.003 4.003 0 0 0 1.98-.49 3.661 3.661 0 0 0 1.398-1.37 4.03 4.03 0 0 0 .516-2.078 4.94 4.94 0 0 0-.135-1.167 3.357 3.357 0 0 0-.44-1.03Zm-1.574 3.642a1.998 1.998 0 0 1-.957.786 3.95 3.95 0 0 1-1.498.253h-2.354V7.47h2.591a3.23 3.23 0 0 1 1.44.279c.358.173.652.458.837.811.196.396.292.834.28 1.276.019.477-.099.949-.34 1.361ZM57.184 16.546c.269-.23.544-.468.835-.727.406-.36.816-.752 1.228-1.174a20.18 20.18 0 0 0 1.176-1.318c.362-.442.693-.908.99-1.395.279-.452.506-.934.678-1.436.16-.463.243-.948.245-1.437a3.115 3.115 0 0 0-.27-1.326 2.868 2.868 0 0 0-.796-1.014 3.632 3.632 0 0 0-1.312-.66 6.49 6.49 0 0 0-1.803-.228 6.676 6.676 0 0 0-1.177.101c-.37.066-.732.165-1.084.297-.335.125-.66.274-.973.447l.22 1.47c.268-.179.555-.329.855-.447.326-.131.663-.233 1.007-.305.351-.073.709-.11 1.067-.11.375-.007.75.044 1.109.153.286.087.55.237.77.44.2.184.352.413.449.667.098.268.147.551.144.836a3.737 3.737 0 0 1-.288 1.395 7.421 7.421 0 0 1-.813 1.47c-.379.538-.792 1.052-1.236 1.538-.474.524-.99 1.048-1.549 1.572-.558.524-1.137 1.056-1.735 1.597L55.14 18h7.33l.204-1.454h-5.49Z"/></svg>
